packages/kaspersky-hexa-ui-icons/src/iconsSVGs/24/HighlightMatches.svg

<svg width="24" height="24" viewBox="0 0 24 24" fill="none" xmlns="http://www.w3.org/2000/svg">
<path fill-rule="evenodd" clip-rule="evenodd" d="M2 7C2 5.34315 3.34315 4 5 4H19C20.6569 4 22 5.34315 22 7V17C22 18.6569 20.6569 20 19 20H5C3.34315 20 2 18.6569 2 17V7ZM5 6C4.44772 6 4 6.44772 4 7V17C4 17.5523 4.44772 18 5 18H19C19.5523 18 20 17.5523 20 17V7C20 6.44772 19.5523 6 19 6H5Z" fill="black"/>
</svg>

<svg xmlns="http://www.w3.org/2000/svg" width="24" height="24" fill="none" viewBox="0 0 24 24"><path fill="#000" fill-rule="evenodd" d="M2 7c0-1.6569 1.3432-3 3-3h14c1.6569 0 3 1.3431 3 3v10c0 1.6569-1.3431 3-3 3H5c-1.6568 0-3-1.3431-3-3zm3-1c-.5523 0-1 .4477-1 1v10c0 .5523.4477 1 1 1h14c.5523 0 1-.4477 1-1V7c0-.5523-.4477-1-1-1z"/></svg>
